src/main/resources/icons/tact.svg

<svg width="16" height="16" viewBox="0 0 329 329" fill="none" xmlns="http://www.w3.org/2000/svg"
>
    <mask id="mask0_17_142" style="mask-type:alpha" maskUnits="userSpaceOnUse" x="0" y="0" width="329" height="329">
        <path d="M40.0226 307.038C54.9525 318.537 72.26 323.297 91.8689 325.514C110.727 327.645 134.293 327.645 163.152 327.645H163.191H165.809H165.848C194.707 327.645 218.274 327.645 237.131 325.514C256.74 323.297 274.048 318.537 288.978 307.038C295.751 301.821 301.821 295.751 307.038 288.978C318.537 274.048 323.297 256.74 325.514 237.131C327.645 218.274 327.645 194.707 327.645 165.848V165.809V163.191V163.152C327.645 134.293 327.645 110.727 325.514 91.8689C323.297 72.26 318.537 54.9525 307.038 40.0226C301.821 33.2491 295.751 27.1785 288.978 21.9618C274.048 10.463 256.74 5.70272 237.131 3.48622C218.273 1.35459 194.706 1.35498 165.846 1.35546L165.809 1.35546H163.191L163.154 1.35546C134.294 1.35498 110.727 1.35459 91.8689 3.48622C72.26 5.70272 54.9525 10.463 40.0226 21.9618C33.2491 27.1785 27.1785 33.2491 21.9618 40.0226C10.463 54.9525 5.70272 72.26 3.48622 91.8689C1.35459 110.727 1.35498 134.294 1.35546 163.154L1.35546 163.191V165.809L1.35546 165.846C1.35498 194.706 1.35459 218.273 3.48622 237.131C5.70272 256.74 10.463 274.048 21.9618 288.978C27.1785 295.751 33.2491 301.821 40.0226 307.038ZM24.6607 164.5C24.6607 134.483 24.6617 112.024 26.644 94.4865C28.6248 76.9626 32.5772 64.4334 40.4256 54.243C44.4167 49.061 49.061 44.4167 54.243 40.4256C64.4334 32.5772 76.9626 28.6248 94.4865 26.644C112.024 24.6617 134.483 24.6607 164.5 24.6607C194.518 24.6607 216.977 24.6617 234.514 26.644C252.037 28.6248 264.567 32.5772 274.757 40.4256C279.939 44.4167 284.583 49.061 288.574 54.243C296.423 64.4334 300.375 76.9626 302.356 94.4865C304.338 112.024 304.339 134.483 304.339 164.5C304.339 194.518 304.338 216.977 302.356 234.514C300.375 252.037 296.423 264.567 288.574 274.757C284.583 279.939 279.939 284.583 274.757 288.574C264.567 296.423 252.037 300.375 234.514 302.356C216.977 304.338 194.518 304.339 164.5 304.339C134.483 304.339 112.024 304.338 94.4865 302.356C76.9626 300.375 64.4334 296.423 54.243 288.574C49.061 284.583 44.4167 279.939 40.4256 274.757C32.5772 264.567 28.6248 252.037 26.644 234.514C24.6617 216.977 24.6607 194.518 24.6607 164.5Z"
              fill="white" stroke="black" stroke-width="1.28911"/>
    </mask>
    <g mask="url(#mask0_17_142)">
        <rect x="-405.823" y="-433.085" width="1163.71" height="1163.71" fill="url(#pattern0)"/>
        <rect x="-405.823" y="-433.085" width="1163.71" height="1163.71" fill="black"/>
    </g>
    <mask id="mask1_17_142" style="mask-type:alpha" maskUnits="userSpaceOnUse" x="25" y="24" width="281" height="281">
        <rect x="25.0142" y="24.0193" width="280.968" height="280.968" rx="76.8017" fill="white"/>
    </mask>
    <g mask="url(#mask1_17_142)">
        <path d="M135.266 187.5L20.7515 313.874L275.064 174.896L189.398 138.076L303.909 11.7074L53.9547 155.034L135.266 187.5Z"
              fill="black"/>
        <path d="M135.266 187.5L20.7515 313.874L275.064 174.896L189.398 138.076L303.909 11.7074L53.9547 155.034L135.266 187.5Z"
              stroke="black"/>
    </g>
</svg>

<svg xmlns="http://www.w3.org/2000/svg" width="16" height="16" fill="none" viewBox="0 0 329 329">
    <mask id="a" width="329" height="329" x="0" y="0" maskUnits="userSpaceOnUse" style="mask-type:alpha">
        <path fill="#fff" stroke="#000" stroke-width="1.289"
              d="M40.023 307.038c14.93 11.499 32.237 16.259 51.846 18.476 18.858 2.131 42.424 2.131 71.283 2.131h2.696c28.859 0 52.426 0 71.283-2.131 19.609-2.217 36.917-6.977 51.847-18.476a99.227 99.227 0 0 0 18.06-18.06c11.499-14.93 16.259-32.238 18.476-51.847 2.131-18.857 2.131-42.424 2.131-71.283v-2.696c0-28.859 0-52.425-2.131-71.283-2.217-19.609-6.977-36.916-18.476-51.846a99.206 99.206 0 0 0-18.06-18.061c-14.93-11.499-32.238-16.26-51.847-18.476-18.858-2.131-42.425-2.131-71.285-2.13H163.154c-28.86-.001-52.427-.001-71.285 2.13-19.609 2.217-36.916 6.977-51.846 18.476a99.185 99.185 0 0 0-18.061 18.06C10.463 54.953 5.702 72.26 3.486 91.87c-2.131 18.858-2.131 42.425-2.13 71.285V165.846c-.001 28.86-.001 52.427 2.13 71.285 2.217 19.609 6.977 36.917 18.476 51.847a99.206 99.206 0 0 0 18.06 18.06ZM24.66 164.5c0-30.017 0-52.476 1.983-70.013 1.98-17.524 5.933-30.054 13.782-40.244a75.89 75.89 0 0 1 13.817-13.817c10.19-7.849 22.72-11.801 40.244-13.782 17.537-1.982 39.996-1.983 70.013-1.983 30.018 0 52.477 0 70.014 1.983 17.523 1.98 30.053 5.933 40.243 13.782a75.884 75.884 0 0 1 13.817 13.817c7.849 10.19 11.801 22.72 13.782 40.244 1.982 17.537 1.983 39.996 1.983 70.013 0 30.018-.001 52.477-1.983 70.014-1.981 17.523-5.933 30.053-13.782 40.243a75.879 75.879 0 0 1-13.817 13.817c-10.19 7.849-22.72 11.801-40.243 13.782-17.537 1.982-39.996 1.983-70.014 1.983-30.017 0-52.476-.001-70.013-1.983-17.524-1.981-30.054-5.933-40.244-13.782a75.884 75.884 0 0 1-13.817-13.817c-7.849-10.19-11.801-22.72-13.782-40.243-1.982-17.537-1.983-39.996-1.983-70.014Z"/>
    </mask>
    <g mask="url(#a)">
        <path d="M-405.823-433.085h1163.71v1163.71h-1163.71z"/>
        <path fill="#000" d="M-405.823-433.085h1163.71v1163.71h-1163.71z"/>
    </g>
    <mask id="b" width="281" height="281" x="25" y="24" maskUnits="userSpaceOnUse" style="mask-type:alpha">
        <rect width="280.968" height="280.968" x="25.014" y="24.019" fill="#fff" rx="76.802"/>
    </mask>
    <g mask="url(#b)">
        <path fill="#000"
              d="M135.266 187.5 20.752 313.874l254.312-138.978-85.666-36.82L303.909 11.707 53.955 155.034l81.311 32.466Z"/>
        <path stroke="#000"
              d="M135.266 187.5 20.752 313.874l254.312-138.978-85.666-36.82L303.909 11.707 53.955 155.034l81.311 32.466Z"/>
    </g>
</svg>
